tools/download-figma-icons/icons/solid/video-consultation.svg

<svg width="24" height="24" viewBox="0 0 24 24" fill="none" xmlns="http://www.w3.org/2000/svg">
<path d="M23.925 19.17L21.75 14.745V3.7425C21.75 2.9175 21.0825 2.25 20.2575 2.25H3.7425C2.9175 2.25 2.25 2.9175 2.25 3.7425V14.745L0.075 19.17C0.03 19.2675 0 19.38 0 19.5V21.0075C0 21.8325 0.6675 22.5 1.4925 22.5H22.5075C23.3325 22.5 24 21.8325 24 21.0075V19.5C24 19.38 23.97 19.2675 23.925 19.17ZM9.75 7.5C9.75 6.255 10.755 5.25 12 5.25C13.245 5.25 14.25 6.255 14.25 7.5C14.25 8.1375 13.98 8.715 13.5525 9.1275C14.82 9.4875 15.75 10.635 15.75 12C15.75 12.4125 15.4125 12.75 15 12.75H9C8.5875 12.75 8.25 12.4125 8.25 12C8.25 10.635 9.18 9.4875 10.4475 9.1275C10.02 8.715 9.75 8.1375 9.75 7.5ZM3.4275 15.75H20.5725L22.0425 18.75H1.9575L3.4275 15.75Z" fill="black"/>
</svg>

<svg xmlns="http://www.w3.org/2000/svg" width="24" height="24" fill="none" viewBox="0 0 24 24"><path fill="currentColor" d="m23.925 19.17-2.175-4.425V3.743c0-.825-.668-1.493-1.492-1.493H3.742c-.825 0-1.493.668-1.493 1.493v11.002L.075 19.17A.8.8 0 0 0 0 19.5v1.508c0 .825.668 1.492 1.493 1.492h21.015c.825 0 1.492-.668 1.492-1.492V19.5a.8.8 0 0 0-.075-.33M9.75 7.5A2.247 2.247 0 0 1 12 5.25a2.247 2.247 0 0 1 1.553 3.877c1.267.36 2.197 1.508 2.197 2.873 0 .412-.338.75-.75.75H9a.75.75 0 0 1-.75-.75c0-1.365.93-2.512 2.198-2.873A2.26 2.26 0 0 1 9.75 7.5m-6.322 8.25h17.145l1.47 3H1.957z"/></svg>
